Suru++-Ubuntu/apps/scalable/quadrapassel.svg

<svg width="256" height="256" version="1.1" viewBox="0 0 67.73 67.73" xmlns="http://www.w3.org/2000/svg" xmlns:xlink="http://www.w3.org/1999/xlink">
 <defs>
  <linearGradient id="linearGradient1108" x1="296" x2="296" y1="-212" y2="236" gradientUnits="userSpaceOnUse">
   <stop style="stop-color:#ffffff" offset="0"/>
   <stop style="stop-color:#ffffff;stop-opacity:.09803922" offset=".125"/>
   <stop style="stop-color:#000000;stop-opacity:.09803922" offset=".925"/>
   <stop style="stop-color:#000000;stop-opacity:.49803922" offset="1"/>
  </linearGradient>
  <clipPath id="clipPath1082-3-36">
   <path d="M 361.9375,-212 C 507.2348,-212 528,-191.28677 528,-46.125 V 70.125 C 528,215.28618 507.2348,236 361.9375,236 H 214.0625 C 68.7652,236 48,215.28618 48,70.125 V -46.125 C 48,-191.28677 68.7652,-212 214.0625,-212 Z" style="fill:#8c59d9"/>
  </clipPath>
  <linearGradient id="linearGradient1007" x1="-75" x2="7" y1="-96" y2="-96" gradientTransform="matrix(1.2903225,0,0,1.2903225,303.87097,277.87096)" gradientUnits="userSpaceOnUse" xlink:href="#linearGradient4780"/>
  <linearGradient id="linearGradient4780">
   <stop style="stop-color:#fdc92b" offset="0"/>
   <stop style="stop-color:#ffda64" offset="1"/>
  </linearGradient>
  <filter id="filter4920" x="-.15" width="1.302" height="1.199" style="color-interpolation-filters:sRGB">
   <feGaussianBlur stdDeviation="6.3"/>
  </filter>
  <filter id="filter4889" x="-.01" y="-.01" width="1.03" height="1.02" style="color-interpolation-filters:sRGB">
   <feGaussianBlur stdDeviation=".63"/>
  </filter>
  <linearGradient id="linearGradient4782" x1="-75" x2="7" y1="-96" y2="-96" gradientTransform="matrix(1.2903225,0,0,1.2903225,197.87097,277.87096)" gradientUnits="userSpaceOnUse" xlink:href="#linearGradient4780"/>
  <linearGradient id="linearGradient1066" x1="32" x2="272" y1="44" y2="268" gradientTransform="matrix(.26458333 0 0 .26458333 -6.993468 221.97263)" gradientUnits="userSpaceOnUse">
   <stop style="stop-color:#2b898f" offset="0"/>
   <stop style="stop-color:#31c6b7" offset="1"/>
  </linearGradient>
  <filter id="filter4569" x="-.01" y="-.01" width="1.023" height="1.025" style="color-interpolation-filters:sRGB">
   <feGaussianBlur stdDeviation="1.16"/>
  </filter>
  <filter id="filter913" x="-.02" y="-.03" width="1.046" height="1.05" style="color-interpolation-filters:sRGB">
   <feGaussianBlur stdDeviation="2.32"/>
  </filter>
 </defs>
 <g transform="translate(0,-229.26666)">
  <path transform="matrix(.26458333 0 0 .26458333 -1.8735229e-8 232.67026)" d="m162.53675 5.5680001c72.64865 0 83.03125 10.356615 83.03125 82.937505v58.125005c0 72.58059-10.3826 82.9375-83.03125 82.9375h-73.937496c-72.648654 0-83.031254-10.35691-83.031254-82.9375v-58.125005c0-72.58089 10.3826-82.937505 83.031254-82.937505z" style="filter:url(#filter913);opacity:.2"/>
  <path transform="matrix(.26458333 0 0 .26458333 -1.8735229e-8 232.67026)" d="m162.53675 3.5680001c72.64865 0 83.03125 10.356615 83.03125 82.937505v58.125005c0 72.58059-10.3826 82.9375-83.03125 82.9375h-73.937496c-72.648654 0-83.031254-10.35691-83.031254-82.9375v-58.125005c0-72.58089 10.3826-82.937505 83.031254-82.937505z" style="filter:url(#filter4569);opacity:.1"/>
  <path d="m1.473198 270.40792v0.52916c0 9.60218 0.685991 15.087 3.776514 18.17357 3.090529 3.08658 8.580983 3.77031 18.192171 3.77031h19.56263c9.61119 0 15.101644-0.68373 18.19217-3.77031 3.090527-3.08657 3.776515-8.57139 3.776515-18.17357v-0.52916c0 9.60217-0.685988 15.08699-3.776515 18.17356-3.090526 3.08658-8.58098 3.77032-18.19217 3.77032h-19.56263c-9.611188 0-15.101642-0.68374-18.192171-3.77032-3.090523-3.08657-3.776514-8.57139-3.776514-18.17356z" style="fill:#131313;opacity:.2"/>
  <path d="m23.441883 233.61429c-19.221622 0-21.968685 2.74019-21.968685 21.94388v15.37891c0 19.20369 2.747063 21.94388 21.968685 21.94388h19.56263c19.221622 0 21.968685-2.74026 21.968685-21.94388v-15.37891c0-19.20361-2.747063-21.94388-21.968685-21.94388h-9.781316z" style="fill:url(#linearGradient1066)"/>
  <g transform="matrix(.26458333 0 0 .26458333 -6.464302 221.97263)" style="enable-background:new">
   <path d="m198 84.000002-39.74219 0.19336c-2.85932 0.01393-4.25781 0.94729-4.25781 3.80664v39.999998c0 2.85936 1.39849 3.79271 4.25781 3.80664l39.74219 0.19336c2.85933 0.0139 4-1.14064 4-4v-39.999998c0-2.85935-1.14067-4.01393-4-4zm-52 51.999998-39.74219 0.19336c-2.85932 0.0139-4.25781 0.94729-4.25781 3.80664v40c0 2.85936 1.39849 3.79271 4.25781 3.80664l39.74219 0.19336c2.85933 0.0139 4-1.14064 4-4v-40c0-2.85935-1.14067-4.01393-4-4zm52 0-39.74219 0.19336c-2.85932 0.0139-4.25781 0.94729-4.25781 3.80664v40c0 2.85936 1.39849 3.79271 4.25781 3.80664l39.74219 0.19336c2.85933 0.0139 4-1.14064 4-4v-40c0-2.85935-1.14067-4.01393-4-4zm-52 52-39.74219 0.19336c-2.85932 0.0139-4.25781 0.94729-4.25781 3.80664v40c0 2.85936 1.39849 3.79271 4.25781 3.80664l39.74219 0.19336c2.85933 0.0139 4-1.14064 4-4v-40c0-2.85935-1.14067-4.01393-4-4z" style="filter:url(#filter4920);opacity:.4"/>
   <path d="m198 82.000003-39.74219 0.19336c-2.85932 0.01393-4.25781 0.94729-4.25781 3.80664v40.000007c0 2.85936 1.39849 3.79271 4.25781 3.80664l39.74219 0.19336c2.85933 0.0139 4-1.14064 4-4v-40.000007c0-2.85935-1.14067-4.01393-4-4zm-52 52.000007-39.74219 0.19336c-2.85932 0.0139-4.25781 0.94729-4.25781 3.80664v40c0 2.85936 1.39849 3.79271 4.25781 3.80664l39.74219 0.19335c2.85933 0.0139 4-1.14063 4-3.99999v-40c0-2.85935-1.14067-4.01393-4-4zm52 0-39.74219 0.19336c-2.85932 0.0139-4.25781 0.94729-4.25781 3.80664v40c0 2.85936 1.39849 3.79271 4.25781 3.80664l39.74219 0.19335c2.85933 0.0139 4-1.14063 4-3.99999v-40c0-2.85935-1.14067-4.01393-4-4zm-52 51.99999-39.74219 0.19336c-2.85932 0.0139-4.25781 0.94729-4.25781 3.80664v40c0 2.85936 1.39849 3.79271 4.25781 3.80664l39.74219 0.19336c2.85933 0.0139 4-1.14064 4-4v-40c0-2.85935-1.14067-4.01393-4-4z" style="filter:url(#filter4889);opacity:.1"/>
   <path d="m198 80-39.74219 0.19336c-2.85932 0.01393-4.25781 0.94729-4.25781 3.80664v40c0 2.85936 1.39849 3.79271 4.25781 3.80664l39.74219 0.19336c2.85933 0.0139 4-1.14064 4-4v-40c0-2.85935-1.14067-4.01393-4-4zm-52 52-39.74219 0.19336c-2.85932 0.01393-4.25781 0.94729-4.25781 3.80664v40c0 2.85936 1.39849 3.79271 4.25781 3.80664l39.74219 0.19336c2.85933 0.0139 4-1.14064 4-4v-40c0-2.85935-1.14067-4.01393-4-4zm52 0-39.74219 0.19336c-2.85932 0.01393-4.25781 0.94729-4.25781 3.80664v40c0 2.85936 1.39849 3.79271 4.25781 3.80664l39.74219 0.19336c2.85933 0.0139 4-1.14064 4-4v-40c0-2.85935-1.14067-4.01393-4-4zm-52 52-39.74219 0.19336c-2.85932 0.01393-4.25781 0.94729-4.25781 3.80664v40c0 2.85936 1.39849 3.79271 4.25781 3.80664l39.74219 0.19336c2.85933 0.0139 4-1.14064 4-4v-40c0-2.85935-1.14067-4.01393-4-4z" style="fill:url(#linearGradient4782)"/>
   <path d="m198 80-39.74219 0.193359c-2.85932 0.01393-4.25781 0.947291-4.25781 3.806641v1c0-2.85935 1.39849-3.792741 4.25781-3.806641l39.74219-0.193359c2.85933-0.01393 4 1.14065 4 4v-1c0-2.85935-1.14067-4.01393-4-4zm-52 52-39.74219 0.19336c-2.85932 0.0139-4.25781 0.94729-4.25781 3.80664v1c0-2.85935 1.39849-3.79274 4.25781-3.80664l39.74219-0.19336c2.85933-0.0139 4 1.14065 4 4v-1c0-2.85935-1.14067-4.01393-4-4zm52 0-39.74219 0.19336c-2.85932 0.0139-4.25781 0.94729-4.25781 3.80664v1c0-2.85935 1.39849-3.79274 4.25781-3.80664l39.74219-0.19336c2.85933-0.0139 4 1.14065 4 4v-1c0-2.85935-1.14067-4.01393-4-4zm-52 52-39.74219 0.19336c-2.85932 0.0139-4.25781 0.94729-4.25781 3.80664v1c0-2.85935 1.39849-3.79274 4.25781-3.80664l39.74219-0.19336c2.85933-0.0139 4 1.14065 4 4v-1c0-2.85935-1.14067-4.01393-4-4z" style="fill:#ffffff"/>
  </g>
  <g transform="matrix(.26458333 0 0 .26458333 -6.993468 221.97263)" style="enable-background:new;opacity:.3">
   <path d="m268.56641 80.171875-4.3086 0.02148c-2.85932 0.013934-4.25781 0.947295-4.25781 3.806645v40c0 2.85936 1.39849 3.79271 4.25781 3.80664l7.74219 0.03711v-0.90625c0-19.93069-0.79346-35.144988-3.43359-46.765625zm-16.56641 51.828125-39.74219 0.19336c-2.85932 0.01393-4.25781 0.94729-4.25781 3.80664v40c0 2.85936 1.39849 3.79271 4.25781 3.80664l39.74219 0.19336c2.85933 0.0139 4-1.14064 4-4v-40c0-2.85935-1.14067-4.01393-4-4zm20 0.15625-7.74219 0.0371c-2.85932 0.01394-4.25781 0.9473-4.25781 3.80665v40c0 2.85936 1.39849 3.79271 4.25781 3.80664l7.74219 0.03711v-23.84375zm-176 51.84375-39.742188 0.19336c-2.859318 0.01393-4.257812 0.94729-4.257812 3.80664v40c0 2.85936 1.398494 3.79271 4.257812 3.80664l39.742188 0.19336c2.85933 0.0139 4-1.14064 4-4v-40c0-2.85935-1.14067-4.01393-4-4zm104 0-39.74219 0.19336c-2.85932 0.01393-4.25781 0.94729-4.25781 3.80664v40c0 2.85936 1.39849 3.79271 4.25781 3.80664l39.74219 0.19336c2.85933 0.0139 4-1.14064 4-4v-40c0-2.85935-1.14067-4.01393-4-4zm52 0-39.74219 0.19336c-2.85932 0.01393-4.25781 0.94729-4.25781 3.80664v40c0 2.85936 1.39849 3.79271 4.25781 3.80664l39.74219 0.19336c2.85933 0.0139 4-1.14064 4-4v-40c0-2.85935-1.14067-4.01393-4-4zm-208 52-7.494141 0.0371c2.440846 8.39342 6.103649 14.65486 11.494141 19.30079v-15.33789c0-2.85935-1.14067-4.01393-4-4zm52 0-39.742188 0.19336c-2.859318 0.01393-4.257812 0.94729-4.257812 3.80664v18.29492c10.221833 6.46309 25.481349 8.86703 48 9.50586v-27.80078c0-2.85935-1.14067-4.01393-4-4zm52 0-39.74219 0.19336c-2.85932 0.01393-4.25781 0.94729-4.25781 3.80664v27.89648c3.51845 0.06636 7.16854 0.10352 11.03125 0.10352h36.96875v-28c0-2.85935-1.14067-4.01393-4-4zm52 0-39.74219 0.19336c-2.85932 0.01393-4.25781 0.94729-4.25781 3.80664v28h32.96875c5.35487 0 10.33219-0.0659 15.03125-0.19922v-27.80078c0-2.85935-1.14067-4.01393-4-4z" style="fill:url(#linearGradient1007)"/>
   <path d="m268.56641 80.171875-4.3086 0.02148c-2.85932 0.013934-4.25781 0.947295-4.25781 3.806645v1c0-2.85935 1.39849-3.792741 4.25781-3.806641l4.51953-0.02148c-0.0713-0.332275-0.13675-0.673463-0.21093-1zm-16.56641 51.828125-39.74219 0.19336c-2.85932 0.0139-4.25781 0.94729-4.25781 3.80664v1c0-2.85935 1.39849-3.79274 4.25781-3.80664l39.74219-0.19336c2.85933-0.0139 4 1.14065 4 4v-1c0-2.85935-1.14067-4.01393-4-4zm20 0.15625-7.74219 0.0371c-2.85932 0.01391-4.25781 0.9473-4.25781 3.80665v1c0-2.85935 1.39849-3.79274 4.25781-3.80664l7.74219-0.03711zm-176 51.84375-39.742188 0.19336c-2.859318 0.01393-4.257812 0.94729-4.257812 3.80664v1c0-2.85935 1.398494-3.79274 4.257812-3.80664l39.742188-0.19336c2.85933-0.0139 4 1.14065 4 4v-1c0-2.85935-1.14067-4.01393-4-4zm104 0-39.74219 0.19336c-2.85932 0.01393-4.25781 0.94729-4.25781 3.80664v1c0-2.85935 1.39849-3.79274 4.25781-3.80664l39.74219-0.19336c2.85933-0.0139 4 1.14065 4 4v-1c0-2.85935-1.14067-4.01393-4-4zm52 0-39.74219 0.19336c-2.85932 0.0139-4.25781 0.94729-4.25781 3.80664v1c0-2.85935 1.39849-3.79274 4.25781-3.80664l39.74219-0.19336c2.85933-0.0139 4 1.14065 4 4v-1c0-2.85935-1.14067-4.01393-4-4zm-208 52-7.494141 0.0371c0.09781 0.33635 0.19707 0.6685 0.298829 0.99805l7.195312-0.03515c2.85933-0.0139 4 1.14065 4 4v-1c0-2.85935-1.14067-4.01393-4-4zm52 0-39.742188 0.19336c-2.859318 0.0139-4.257812 0.94729-4.257812 3.80664v1c0-2.85935 1.398494-3.79274 4.257812-3.80664l39.742188-0.19336c2.85933-0.0139 4 1.14065 4 4v-1c0-2.85935-1.14067-4.01393-4-4zm52 0-39.74219 0.19336c-2.85932 0.0139-4.25781 0.94729-4.25781 3.80664v1c0-2.85935 1.39849-3.79274 4.25781-3.80664l39.74219-0.19336c2.85933-0.0139 4 1.14065 4 4v-1c0-2.85935-1.14067-4.01393-4-4zm52 0-39.74219 0.19336c-2.85932 0.0139-4.25781 0.94729-4.25781 3.80664v1c0-2.85935 1.39849-3.79274 4.25781-3.80664l39.74219-0.19336c2.85933-0.0139 4 1.14065 4 4v-1c0-2.85935-1.14067-4.01393-4-4z" style="fill:#ffffff"/>
  </g>
  <path transform="matrix(.13229167 0 0 .13229167 -4.876802 261.66013)" d="M 361.9375,-212 C 507.2348,-212 528,-191.28677 528,-46.125 V 70.125 C 528,215.28618 507.2348,236 361.9375,236 H 214.0625 C 68.7652,236 48,215.28618 48,70.125 V -46.125 C 48,-191.28677 68.7652,-212 214.0625,-212 Z" clip-path="url(#clipPath1082-3-36)" style="fill:none;opacity:.6;stroke-linecap:round;stroke-linejoin:round;stroke-width:8;stroke:url(#linearGradient1108)"/>
 </g>
</svg>

<svg xmlns="http://www.w3.org/2000/svg" xmlns:xlink="http://www.w3.org/1999/xlink" width="256" height="256" version="1.1" viewBox="0 0 67.73 67.73">
 <defs>
  <linearGradient id="linearGradient1108" x1="296" x2="296" y1="-212" y2="236" gradientUnits="userSpaceOnUse" xlink:href="#linearGradient1013"/>
  <linearGradient id="linearGradient1013">
   <stop offset="0" style="stop-color:#ffffff"/>
   <stop style="stop-color:#ffffff;stop-opacity:0.09803922" offset=".125"/>
   <stop style="stop-color:#000000;stop-opacity:0.09803922" offset=".925"/>
   <stop offset="1" style="stop-color:#000000;stop-opacity:0.49803922"/>
  </linearGradient>
  <clipPath id="clipPath1082-3-36" clipPathUnits="userSpaceOnUse">
   <path d="M 361.9375,-212 C 507.2348,-212 528,-191.28677 528,-46.125 V 70.125 C 528,215.28618 507.2348,236 361.9375,236 H 214.0625 C 68.7652,236 48,215.28618 48,70.125 V -46.125 C 48,-191.28677 68.7652,-212 214.0625,-212 Z" style="fill:#8c59d9"/>
  </clipPath>
  <linearGradient id="linearGradient1007" x1="-75" x2="7" y1="-96" y2="-96" gradientTransform="matrix(1.2903225,0,0,1.2903225,303.87097,277.87096)" gradientUnits="userSpaceOnUse" xlink:href="#linearGradient4780"/>
  <linearGradient id="linearGradient4780">
   <stop style="stop-color:#fdc92b" offset="0"/>
   <stop style="stop-color:#ffda64" offset="1"/>
  </linearGradient>
  <filter style="color-interpolation-filters:sRGB" id="filter4920" width="1.302" height="1.199" x="-.15" y="-.1">
   <feGaussianBlur stdDeviation="6.3"/>
  </filter>
  <filter style="color-interpolation-filters:sRGB" id="filter4889" width="1.03" height="1.02" x="-.01" y="-.01">
   <feGaussianBlur stdDeviation=".63"/>
  </filter>
  <linearGradient id="linearGradient4782" x1="-75" x2="7" y1="-96" y2="-96" gradientTransform="matrix(1.2903225,0,0,1.2903225,197.87097,277.87096)" gradientUnits="userSpaceOnUse" xlink:href="#linearGradient4780"/>
  <linearGradient id="linearGradient1066" x1="32" x2="272" y1="44" y2="268" gradientTransform="matrix(0.26458333,0,0,0.26458333,-6.993468,221.97263)" gradientUnits="userSpaceOnUse" xlink:href="#linearGradient1206"/>
  <linearGradient id="linearGradient1206">
   <stop offset="0" style="stop-color:#2b898f"/>
   <stop offset="1" style="stop-color:#31c6b7"/>
  </linearGradient>
  <filter style="color-interpolation-filters:sRGB" id="filter4569" width="1.023" height="1.025" x="-.01" y="-.01">
   <feGaussianBlur stdDeviation="1.16"/>
  </filter>
  <filter style="color-interpolation-filters:sRGB" id="filter913" width="1.046" height="1.05" x="-.02" y="-.03">
   <feGaussianBlur stdDeviation="2.32"/>
  </filter>
 </defs>
 <g transform="translate(0,-229.26666)">
  <path style="opacity:0.2;filter:url(#filter913)" d="m 162.53675,5.5680001 c 72.64865,0 83.03125,10.3566149 83.03125,82.9375049 v 58.125005 c 0,72.58059 -10.3826,82.9375 -83.03125,82.9375 H 88.599254 C 15.9506,229.56801 5.568,219.2111 5.568,146.63051 V 88.505505 c 0,-72.58089 10.3826,-82.9375049 83.031254,-82.9375049 z" transform="matrix(0.26458333,0,0,0.26458333,-1.8735229e-8,232.67026)"/>
  <path d="m 162.53675,3.5680001 c 72.64865,0 83.03125,10.3566149 83.03125,82.9375049 v 58.125005 c 0,72.58059 -10.3826,82.9375 -83.03125,82.9375 H 88.599254 C 15.9506,227.56801 5.568,217.2111 5.568,144.63051 V 86.505505 c 0,-72.58089 10.3826,-82.9375049 83.031254,-82.9375049 z" transform="matrix(0.26458333,0,0,0.26458333,-1.8735229e-8,232.67026)" style="opacity:0.1;filter:url(#filter4569)"/>
  <path style="opacity:0.2;fill:#131313" d="m 1.473198,270.40792 v 0.52916 c 0,9.60218 0.685991,15.087 3.776514,18.17357 3.090529,3.08658 8.580983,3.77031 18.192171,3.77031 h 19.56263 c 9.61119,0 15.101644,-0.68373 18.19217,-3.77031 3.090527,-3.08657 3.776515,-8.57139 3.776515,-18.17357 v -0.52916 c 0,9.60217 -0.685988,15.08699 -3.776515,18.17356 -3.090526,3.08658 -8.58098,3.77032 -18.19217,3.77032 h -19.56263 c -9.611188,0 -15.101642,-0.68374 -18.192171,-3.77032 -3.090523,-3.08657 -3.776514,-8.57139 -3.776514,-18.17356 z"/>
  <path style="fill:url(#linearGradient1066)" d="m 23.441883,233.61429 c -19.221622,0 -21.968685,2.74019 -21.968685,21.94388 v 7.68946 7.68945 c 0,19.20369 2.747063,21.94388 21.968685,21.94388 h 9.781314 9.781316 c 19.221622,0 21.968685,-2.74026 21.968685,-21.94388 v -7.68945 -7.68946 c 0,-19.20361 -2.747063,-21.94388 -21.968685,-21.94388 h -9.781316 z"/>
  <g style="enable-background:new" transform="matrix(0.26458333,0,0,0.26458333,-6.464302,221.97263)">
   <path d="m 198,84.000002 -39.74219,0.19336 C 155.39849,84.207292 154,85.140652 154,88.000002 V 128 c 0,2.85936 1.39849,3.79271 4.25781,3.80664 L 198,132 c 2.85933,0.0139 4,-1.14064 4,-4 V 88.000002 c 0,-2.85935 -1.14067,-4.01393 -4,-4 z M 146,136 106.25781,136.19336 C 103.39849,136.20726 102,137.14065 102,140 v 40 c 0,2.85936 1.39849,3.79271 4.25781,3.80664 L 146,184 c 2.85933,0.0139 4,-1.14064 4,-4 v -40 c 0,-2.85935 -1.14067,-4.01393 -4,-4 z m 52,0 -39.74219,0.19336 C 155.39849,136.20726 154,137.14065 154,140 v 40 c 0,2.85936 1.39849,3.79271 4.25781,3.80664 L 198,184 c 2.85933,0.0139 4,-1.14064 4,-4 v -40 c 0,-2.85935 -1.14067,-4.01393 -4,-4 z m -52,52 -39.74219,0.19336 C 103.39849,188.20726 102,189.14065 102,192 v 40 c 0,2.85936 1.39849,3.79271 4.25781,3.80664 L 146,236 c 2.85933,0.0139 4,-1.14064 4,-4 v -40 c 0,-2.85935 -1.14067,-4.01393 -4,-4 z" style="opacity:0.4;filter:url(#filter4920)"/>
   <path d="m 198,82.000003 -39.74219,0.19336 C 155.39849,82.207293 154,83.140653 154,86.000003 v 40.000007 c 0,2.85936 1.39849,3.79271 4.25781,3.80664 L 198,130.00001 c 2.85933,0.0139 4,-1.14064 4,-4 V 86.000003 c 0,-2.85935 -1.14067,-4.01393 -4,-4 z m -52,52.000007 -39.74219,0.19336 C 103.39849,134.20727 102,135.14066 102,138.00001 v 40 c 0,2.85936 1.39849,3.79271 4.25781,3.80664 L 146,182 c 2.85933,0.0139 4,-1.14063 4,-3.99999 v -40 c 0,-2.85935 -1.14067,-4.01393 -4,-4 z m 52,0 -39.74219,0.19336 C 155.39849,134.20727 154,135.14066 154,138.00001 v 40 c 0,2.85936 1.39849,3.79271 4.25781,3.80664 L 198,182 c 2.85933,0.0139 4,-1.14063 4,-3.99999 v -40 c 0,-2.85935 -1.14067,-4.01393 -4,-4 z M 146,186 106.25781,186.19336 C 103.39849,186.20726 102,187.14065 102,190 v 40 c 0,2.85936 1.39849,3.79271 4.25781,3.80664 L 146,234 c 2.85933,0.0139 4,-1.14064 4,-4 v -40 c 0,-2.85935 -1.14067,-4.01393 -4,-4 z" style="opacity:0.1;filter:url(#filter4889)"/>
   <path d="m 198,80 -39.74219,0.19336 C 155.39849,80.20729 154,81.14065 154,84 v 40 c 0,2.85936 1.39849,3.79271 4.25781,3.80664 L 198,128 c 2.85933,0.0139 4,-1.14064 4,-4 V 84 c 0,-2.85935 -1.14067,-4.01393 -4,-4 z m -52,52 -39.74219,0.19336 C 103.39849,132.20729 102,133.14065 102,136 v 40 c 0,2.85936 1.39849,3.79271 4.25781,3.80664 L 146,180 c 2.85933,0.0139 4,-1.14064 4,-4 v -40 c 0,-2.85935 -1.14067,-4.01393 -4,-4 z m 52,0 -39.74219,0.19336 C 155.39849,132.20729 154,133.14065 154,136 v 40 c 0,2.85936 1.39849,3.79271 4.25781,3.80664 L 198,180 c 2.85933,0.0139 4,-1.14064 4,-4 v -40 c 0,-2.85935 -1.14067,-4.01393 -4,-4 z m -52,52 -39.74219,0.19336 C 103.39849,184.20729 102,185.14065 102,188 v 40 c 0,2.85936 1.39849,3.79271 4.25781,3.80664 L 146,232 c 2.85933,0.0139 4,-1.14064 4,-4 v -40 c 0,-2.85935 -1.14067,-4.01393 -4,-4 z" style="fill:url(#linearGradient4782)"/>
   <path d="m 198,80 -39.74219,0.193359 C 155.39849,80.207289 154,81.14065 154,84 v 1 c 0,-2.85935 1.39849,-3.792741 4.25781,-3.806641 L 198,81 c 2.85933,-0.01393 4,1.14065 4,4 v -1 c 0,-2.85935 -1.14067,-4.01393 -4,-4 z m -52,52 -39.74219,0.19336 C 103.39849,132.20726 102,133.14065 102,136 v 1 c 0,-2.85935 1.39849,-3.79274 4.25781,-3.80664 L 146,133 c 2.85933,-0.0139 4,1.14065 4,4 v -1 c 0,-2.85935 -1.14067,-4.01393 -4,-4 z m 52,0 -39.74219,0.19336 C 155.39849,132.20726 154,133.14065 154,136 v 1 c 0,-2.85935 1.39849,-3.79274 4.25781,-3.80664 L 198,133 c 2.85933,-0.0139 4,1.14065 4,4 v -1 c 0,-2.85935 -1.14067,-4.01393 -4,-4 z m -52,52 -39.74219,0.19336 C 103.39849,184.20726 102,185.14065 102,188 v 1 c 0,-2.85935 1.39849,-3.79274 4.25781,-3.80664 L 146,185 c 2.85933,-0.0139 4,1.14065 4,4 v -1 c 0,-2.85935 -1.14067,-4.01393 -4,-4 z" style="fill:#ffffff"/>
  </g>
  <g transform="matrix(0.26458333,0,0,0.26458333,-6.993468,221.97263)" style="opacity:0.3;enable-background:new">
   <path d="m 268.56641,80.171875 -4.3086,0.02148 C 261.39849,80.207289 260,81.14065 260,84 v 40 c 0,2.85936 1.39849,3.79271 4.25781,3.80664 L 272,127.84375 v -0.90625 c 0,-19.93069 -0.79346,-35.144988 -3.43359,-46.765625 z M 252,132 212.25781,132.19336 C 209.39849,132.20729 208,133.14065 208,136 v 40 c 0,2.85936 1.39849,3.79271 4.25781,3.80664 L 252,180 c 2.85933,0.0139 4,-1.14064 4,-4 v -40 c 0,-2.85935 -1.14067,-4.01393 -4,-4 z m 20,0.15625 -7.74219,0.0371 C 261.39849,132.20729 260,133.14065 260,136 v 40 c 0,2.85936 1.39849,3.79271 4.25781,3.80664 L 272,179.84375 V 156 Z M 96,184 56.257812,184.19336 C 53.398494,184.20729 52,185.14065 52,188 v 40 c 0,2.85936 1.398494,3.79271 4.257812,3.80664 L 96,232 c 2.85933,0.0139 4,-1.14064 4,-4 v -40 c 0,-2.85935 -1.14067,-4.01393 -4,-4 z m 104,0 -39.74219,0.19336 C 157.39849,184.20729 156,185.14065 156,188 v 40 c 0,2.85936 1.39849,3.79271 4.25781,3.80664 L 200,232 c 2.85933,0.0139 4,-1.14064 4,-4 v -40 c 0,-2.85935 -1.14067,-4.01393 -4,-4 z m 52,0 -39.74219,0.19336 C 209.39849,184.20729 208,185.14065 208,188 v 40 c 0,2.85936 1.39849,3.79271 4.25781,3.80664 L 252,232 c 2.85933,0.0139 4,-1.14064 4,-4 v -40 c 0,-2.85935 -1.14067,-4.01393 -4,-4 z m -208,52 -7.494141,0.0371 C 38.946705,244.43052 42.609508,250.69196 48,255.33789 V 240 c 0,-2.85935 -1.14067,-4.01393 -4,-4 z m 52,0 -39.742188,0.19336 C 53.398494,236.20729 52,237.14065 52,240 v 18.29492 c 10.221833,6.46309 25.481349,8.86703 48,9.50586 V 240 c 0,-2.85935 -1.14067,-4.01393 -4,-4 z m 52,0 -39.74219,0.19336 C 105.39849,236.20729 104,237.14065 104,240 v 27.89648 C 107.51845,267.96284 111.16854,268 115.03125,268 H 152 v -28 c 0,-2.85935 -1.14067,-4.01393 -4,-4 z m 52,0 -39.74219,0.19336 C 157.39849,236.20729 156,237.14065 156,240 v 28 h 32.96875 c 5.35487,0 10.33219,-0.0659 15.03125,-0.19922 V 240 c 0,-2.85935 -1.14067,-4.01393 -4,-4 z" style="fill:url(#linearGradient1007)"/>
   <path d="m 268.56641,80.171875 -4.3086,0.02148 C 261.39849,80.207289 260,81.14065 260,84 v 1 c 0,-2.85935 1.39849,-3.792741 4.25781,-3.806641 l 4.51953,-0.02148 c -0.0713,-0.332275 -0.13675,-0.673463 -0.21093,-1 z M 252,132 212.25781,132.19336 C 209.39849,132.20726 208,133.14065 208,136 v 1 c 0,-2.85935 1.39849,-3.79274 4.25781,-3.80664 L 252,133 c 2.85933,-0.0139 4,1.14065 4,4 v -1 c 0,-2.85935 -1.14067,-4.01393 -4,-4 z m 20,0.15625 -7.74219,0.0371 C 261.39849,132.20726 260,133.14065 260,136 v 1 c 0,-2.85935 1.39849,-3.79274 4.25781,-3.80664 L 272,133.15625 Z M 96,184 56.257812,184.19336 C 53.398494,184.20729 52,185.14065 52,188 v 1 c 0,-2.85935 1.398494,-3.79274 4.257812,-3.80664 L 96,185 c 2.85933,-0.0139 4,1.14065 4,4 v -1 c 0,-2.85935 -1.14067,-4.01393 -4,-4 z m 104,0 -39.74219,0.19336 C 157.39849,184.20729 156,185.14065 156,188 v 1 c 0,-2.85935 1.39849,-3.79274 4.25781,-3.80664 L 200,185 c 2.85933,-0.0139 4,1.14065 4,4 v -1 c 0,-2.85935 -1.14067,-4.01393 -4,-4 z m 52,0 -39.74219,0.19336 C 209.39849,184.20726 208,185.14065 208,188 v 1 c 0,-2.85935 1.39849,-3.79274 4.25781,-3.80664 L 252,185 c 2.85933,-0.0139 4,1.14065 4,4 v -1 c 0,-2.85935 -1.14067,-4.01393 -4,-4 z m -208,52 -7.494141,0.0371 c 0.09781,0.33635 0.19707,0.6685 0.298829,0.99805 L 44,237 c 2.85933,-0.0139 4,1.14065 4,4 v -1 c 0,-2.85935 -1.14067,-4.01393 -4,-4 z m 52,0 -39.742188,0.19336 C 53.398494,236.20726 52,237.14065 52,240 v 1 c 0,-2.85935 1.398494,-3.79274 4.257812,-3.80664 L 96,237 c 2.85933,-0.0139 4,1.14065 4,4 v -1 c 0,-2.85935 -1.14067,-4.01393 -4,-4 z m 52,0 -39.74219,0.19336 C 105.39849,236.20726 104,237.14065 104,240 v 1 c 0,-2.85935 1.39849,-3.79274 4.25781,-3.80664 L 148,237 c 2.85933,-0.0139 4,1.14065 4,4 v -1 c 0,-2.85935 -1.14067,-4.01393 -4,-4 z m 52,0 -39.74219,0.19336 C 157.39849,236.20726 156,237.14065 156,240 v 1 c 0,-2.85935 1.39849,-3.79274 4.25781,-3.80664 L 200,237 c 2.85933,-0.0139 4,1.14065 4,4 v -1 c 0,-2.85935 -1.14067,-4.01393 -4,-4 z" style="fill:#ffffff"/>
  </g>
  <path d="M 361.9375,-212 C 507.2348,-212 528,-191.28677 528,-46.125 V 70.125 C 528,215.28618 507.2348,236 361.9375,236 H 214.0625 C 68.7652,236 48,215.28618 48,70.125 V -46.125 C 48,-191.28677 68.7652,-212 214.0625,-212 Z" clip-path="url(#clipPath1082-3-36)" transform="matrix(0.13229167,0,0,0.13229167,-4.876802,261.66013)" style="opacity:0.6;fill:none;stroke:url(#linearGradient1108);stroke-width:8;stroke-linecap:round;stroke-linejoin:round"/>
 </g>
</svg>
